include/LD/assets/icons/action/new_custom29.svg

<?xml version="1.0"?><svg xmlns="http://www.w3.org/2000/svg" width="52" height="52" viewBox="0 0 52 52"><g fill="#fff"><path d="m45.3 8.4h-1.5c-1 0-1.7 0.8-1.7 1.8v31.8c0 0.1 0 0.2 0.1 0.3l2 2.8c0.2 0.2 0.4 0.2 0.6 0l2-2.8c0.2-0.1 0.2-0.1 0.2-0.3v-31.8c0-1-0.7-1.8-1.7-1.8z m-12.8-6.4h-22.7c-2.6 0-4.8 2.2-4.8 4.8v38.4c0 2.6 2.2 4.8 4.8 4.8h22.6c2.7 0 4.8-2.2 4.8-4.8v-38.4c0.1-2.6-2.1-4.8-4.7-4.8z m-11.3 46.4c-1.4 0-2.4-1-2.4-2.4s1-2.4 2.4-2.4 2.4 1 2.4 2.4-1.1 2.4-2.4 2.4z m11.3-8c0 0.9-0.7 1.6-1.6 1.6h-19.4c-0.9 0-1.6-0.7-1.6-1.6v-30.4c0-0.9 0.7-1.6 1.6-1.6h19.4c0.9 0 1.6 0.7 1.6 1.6v30.4z"></path></g></svg>

<svg xmlns="http://www.w3.org/2000/svg" x="0px" y="0px"
	 width="52px" height="52px" viewBox="0 0 52 52" enable-background="new 0 0 52 52" xml:space="preserve">
<g>
	<path fill="#FFFFFF" d="M45.3,8.4h-1.5c-1,0-1.7,0.8-1.7,1.8V42c0,0.1,0,0.2,0.1,0.3l2,2.8c0.2,0.2,0.4,0.2,0.6,0l2-2.8
		C47,42.2,47,42.2,47,42V10.2C47,9.2,46.3,8.4,45.3,8.4z"/>
	<path fill="#FFFFFF" d="M32.5,2H9.8C7.2,2,5,4.2,5,6.8v38.4C5,47.8,7.2,50,9.8,50h22.6c2.7,0,4.8-2.2,4.8-4.8V6.8
		C37.3,4.2,35.1,2,32.5,2z M21.2,48.4c-1.4,0-2.4-1-2.4-2.4s1-2.4,2.4-2.4s2.4,1,2.4,2.4S22.5,48.4,21.2,48.4z M32.5,40.4
		c0,0.9-0.7,1.6-1.6,1.6H11.5c-0.9,0-1.6-0.7-1.6-1.6V10c0-0.9,0.7-1.6,1.6-1.6h19.4c0.9,0,1.6,0.7,1.6,1.6V40.4z"/>
</g>
</svg>
